Simply-Blue-Circles/scalable/apps/homerun.svg

<svg xmlns="http://www.w3.org/2000/svg" width="48" height="48" viewBox="0 0 12.7 12.7"><path d="M6.35.06a6.29 6.29 0 0 0-6.29 6.3 6.29 6.29 0 0 0 6.3 6.28 6.29 6.29 0 0 0 6.28-6.29A6.29 6.29 0 0 0 6.35.06zm-.02.93l.01.01a5.4 5.4 0 0 1 5.4 5.4 5.4 5.4 0 0 1-5.4 5.41 5.4 5.4 0 0 1-5.41-5.4A5.4 5.4 0 0 1 6.33.99zm-3.25 1.8c-.2 0-.36.16-.36.36v1c0 .2.16.36.36.36h1c.2 0 .36-.16.36-.35V3.15c0-.2-.16-.36-.35-.36H3.08zm2.74 0c-.2 0-.35.16-.35.36v1c0 .2.15.36.35.36h1.01c.2 0 .36-.16.36-.35V3.15c0-.2-.16-.36-.36-.36h-1zm2.75 0c-.2 0-.36.16-.36.36v1c0 .2.16.36.36.36h1c.2 0 .36-.16.36-.35V3.15c0-.2-.16-.36-.35-.36H8.57zm-5.5 2.75c-.2 0-.35.16-.35.35V6.9c0 .2.16.36.36.36h1c.2 0 .36-.16.36-.36v-1c0-.2-.16-.36-.35-.36H3.08zm2.75 0c-.2 0-.35.16-.35.35V6.9c0 .2.15.36.35.36h1.01c.2 0 .36-.16.36-.36v-1c0-.2-.16-.36-.36-.36h-1zm2.75 0c-.2 0-.36.16-.36.35V6.9c0 .2.16.36.36.36h1c.2 0 .36-.16.36-.36v-1c0-.2-.16-.36-.35-.36H8.57zm-5.5 2.74c-.2 0-.35.16-.35.36v1c0 .2.16.36.36.36h1c.2 0 .36-.16.36-.35V8.64c0-.2-.16-.36-.35-.36H3.08zm2.75 0c-.2 0-.35.16-.35.36v1c0 .2.15.36.35.36h1.01c.2 0 .36-.16.36-.35V8.64c0-.2-.16-.36-.36-.36h-1zm2.75 0c-.2 0-.36.16-.36.36v1c0 .2.16.36.36.36h1c.2 0 .36-.16.36-.35V8.64c0-.2-.16-.36-.35-.36H8.57z" fill="#2c89a0"/></svg>

<?xml version="1.0" encoding="UTF-8" standalone="no"?>
<svg
   xmlns:dc="http://purl.org/dc/elements/1.1/"
   xmlns:cc="http://creativecommons.org/ns#"
   xmlns:rdf="http://www.w3.org/1999/02/22-rdf-syntax-ns#"
   xmlns:svg="http://www.w3.org/2000/svg"
   xmlns="http://www.w3.org/2000/svg"
   xmlns:sodipodi="http://sodipodi.sourceforge.net/DTD/sodipodi-0.dtd"
   xmlns:inkscape="http://www.inkscape.org/namespaces/inkscape"
   width="48"
   height="48"
   viewBox="0 0 12.7 12.7"
   version="1.1"
   id="svg4"
   sodipodi:docname="homerun.svg"
   inkscape:version="0.92.4 (5da689c313, 2019-01-14)">
  <metadata
     id="metadata10">
    <rdf:RDF>
      <cc:Work
         rdf:about="">
        <dc:format>image/svg+xml</dc:format>
        <dc:type
           rdf:resource="http://purl.org/dc/dcmitype/StillImage" />
        <dc:title></dc:title>
      </cc:Work>
    </rdf:RDF>
  </metadata>
  <defs
     id="defs8" />
  <sodipodi:namedview
     pagecolor="#ffffff"
     bordercolor="#666666"
     borderopacity="1"
     objecttolerance="10"
     gridtolerance="10"
     guidetolerance="10"
     inkscape:pageopacity="0"
     inkscape:pageshadow="2"
     inkscape:window-width="1087"
     inkscape:window-height="480"
     id="namedview6"
     showgrid="false"
     inkscape:zoom="4.9166667"
     inkscape:cx="2.1355932"
     inkscape:cy="24"
     inkscape:window-x="0"
     inkscape:window-y="25"
     inkscape:window-maximized="0"
     inkscape:current-layer="svg4" />
  <path
     d="M 6.35,0.06 A 6.29,6.29 0 0 0 0.06,6.36 6.29,6.29 0 0 0 6.36,12.64 6.29,6.29 0 0 0 12.64,6.35 6.29,6.29 0 0 0 6.35,0.06 Z M 6.33,0.99 6.34,1 a 5.4,5.4 0 0 1 5.4,5.4 5.4,5.4 0 0 1 -5.4,5.41 5.4,5.4 0 0 1 -5.41,-5.4 5.4,5.4 0 0 1 5.4,-5.42 z m -3.25,1.8 c -0.2,0 -0.36,0.16 -0.36,0.36 v 1 c 0,0.2 0.16,0.36 0.36,0.36 h 1 c 0.2,0 0.36,-0.16 0.36,-0.35 V 3.15 C 4.44,2.95 4.28,2.79 4.09,2.79 Z m 2.74,0 c -0.2,0 -0.35,0.16 -0.35,0.36 v 1 c 0,0.2 0.15,0.36 0.35,0.36 h 1.01 c 0.2,0 0.36,-0.16 0.36,-0.35 V 3.15 C 7.19,2.95 7.03,2.79 6.83,2.79 h -1 z m 2.75,0 c -0.2,0 -0.36,0.16 -0.36,0.36 v 1 c 0,0.2 0.16,0.36 0.36,0.36 h 1 c 0.2,0 0.36,-0.16 0.36,-0.35 V 3.15 C 9.93,2.95 9.77,2.79 9.58,2.79 Z M 3.07,5.54 C 2.87,5.54 2.72,5.7 2.72,5.89 V 6.9 c 0,0.2 0.16,0.36 0.36,0.36 h 1 c 0.2,0 0.36,-0.16 0.36,-0.36 v -1 C 4.44,5.7 4.28,5.54 4.09,5.54 H 3.08 Z m 2.75,0 C 5.62,5.54 5.47,5.7 5.47,5.89 V 6.9 c 0,0.2 0.15,0.36 0.35,0.36 h 1.01 c 0.2,0 0.36,-0.16 0.36,-0.36 v -1 C 7.19,5.7 7.03,5.54 6.83,5.54 h -1 z m 2.75,0 C 8.37,5.54 8.21,5.7 8.21,5.89 V 6.9 c 0,0.2 0.16,0.36 0.36,0.36 h 1 c 0.2,0 0.36,-0.16 0.36,-0.36 v -1 C 9.93,5.7 9.77,5.54 9.58,5.54 Z m -5.5,2.74 c -0.2,0 -0.35,0.16 -0.35,0.36 v 1 c 0,0.2 0.16,0.36 0.36,0.36 h 1 C 4.28,10 4.44,9.84 4.44,9.65 V 8.64 C 4.44,8.44 4.28,8.28 4.09,8.28 H 3.08 Z m 2.75,0 c -0.2,0 -0.35,0.16 -0.35,0.36 v 1 C 5.47,9.84 5.62,10 5.82,10 H 6.83 C 7.03,10 7.19,9.84 7.19,9.65 V 8.64 C 7.19,8.44 7.03,8.28 6.83,8.28 h -1 z m 2.75,0 c -0.2,0 -0.36,0.16 -0.36,0.36 v 1 c 0,0.2 0.16,0.36 0.36,0.36 h 1 C 9.77,10 9.93,9.84 9.93,9.65 V 8.64 C 9.93,8.44 9.77,8.28 9.58,8.28 Z"
     id="path2"
     inkscape:connector-curvature="0"
     style="fill:#2c89a0" />
</svg>
